X:4
T:Royal Review. LIT.004
M:2/2
Q:1/4=140
L:1/8
B:Wm. Litten MS, 1802
Z:Village Music Project 2017 Anne Wride
K:D
FG Ad BG GB | AF FA GE EG | FG Ad BG GB | ce Ac d2d2 :|
|: fd df ec a2 | dB Bd dcf2 | BG GB AF d2 | ce Ac d2d2 :|

